presidentstrophy.svg

<?xml version="1.0" encoding="utf-8"?>
<!-- Generator: Adobe Illustrator 16.0.0, SVG Export Plug-In . SVG Version: 6.00 Build 0)  -->
<!DOCTYPE svg PUBLIC "-//W3C//DTD SVG 1.1//EN" "http://www.w3.org/Graphics/SVG/1.1/DTD/svg11.dtd">
<svg version="1.1" id="Layer_1" xmlns="http://www.w3.org/2000/svg" xmlns:xlink="http://www.w3.org/1999/xlink" x="0px" y="0px"
	 width="220px" height="365px" viewBox="0 0 220 365" enable-background="new 0 0 220 365" xml:space="preserve">
<path fill="#5B4B50" d="M4,11.607l3.061-5.09c0,0,153.857-11.979,204.089,3.054c5.103,1.527-2.041,6.108-2.041,6.108
	s1.531,3.563-10.205,6.108c-11.734,2.545-70.92,24.432-79.594,32.576c6.633,7.126,15.816,13.234,19.389,13.234
	c3.57,0,14.796-1.527,26.531-12.216c7.653-2.036,6.633,7.635-1.021,12.216c-7.653,4.581-11.226,6.108-11.226,6.108l7.144,3.054
	v6.107l13.267,3.054l-1.021,8.144l-6.123,3.054h-14.286l5.102,179.166l25.512,19.342v41.738l14.286,11.196
	c0,0,1.53,10.181-1.021,12.217c-5.102,0.509-163.272,0-163.272,0v-12.217L48.9,337.364l-2.041-40.72l23.47-18.324L72.37,97.118
	L48.9,94.064v-9.162l12.245-5.09v-5.089l8.164-2.036c0,0-15.817-9.671-18.369-14.252c1.021-4.581,5.103-3.054,8.164-1.018
	s14.797,15.779,35.716,5.09c20.918-10.689,14.286-8.144,14.286-8.144L74.411,37.057C74.411,37.057,11.143,21.278,4,11.607z
	 M81.554,96.1l6.123,171.022l21.429-15.269l-1.021-154.735L81.554,96.1z M117.27,97.118l6.123,154.735l16.326,12.215l2.041-166.95
	H117.27z"/>
</svg>

<svg xmlns="http://www.w3.org/2000/svg" xmlns:xlink="http://www.w3.org/1999/xlink" preserveAspectRatio="xMidYMid" width="220" height="365" viewBox="0 0 220 365">
  <defs>
    <style>
      .cls-1 {
        fill: #000;
        fill-rule: evenodd;
      }
    </style>
  </defs>
  <path d="M4.000,11.607 L7.061,6.517 C7.061,6.517 160.918,-5.462 211.150,9.571 C216.253,11.098 209.110,15.679 209.110,15.679 C209.110,15.679 210.640,19.242 198.905,21.787 C187.170,24.332 127.984,46.219 119.310,54.363 C125.943,61.489 135.127,67.597 138.699,67.597 C142.270,67.597 153.495,66.070 165.230,55.381 C172.884,53.345 171.863,63.016 164.210,67.597 C156.557,72.178 152.985,73.705 152.985,73.705 L160.128,76.759 L160.128,82.866 L173.394,85.920 L172.374,94.064 L166.251,97.118 L151.965,97.118 L157.067,276.284 L182.578,295.626 L182.578,337.364 L196.864,348.561 C196.864,348.561 198.395,358.741 195.844,360.777 C190.742,361.286 32.572,360.777 32.572,360.777 L32.572,348.561 L48.900,337.364 L46.859,296.644 L70.329,278.320 L72.370,97.118 L48.900,94.064 L48.900,84.902 L61.145,79.812 L61.145,74.723 L69.309,72.687 C69.309,72.687 53.492,63.016 50.940,58.435 C51.961,53.854 56.043,55.381 59.104,57.417 C62.165,59.453 73.901,73.196 94.820,62.507 C115.739,51.818 109.106,54.363 109.106,54.363 L74.411,37.057 C74.411,37.057 11.143,21.278 4.000,11.607 ZM81.554,96.100 L87.677,267.122 L109.106,251.853 L108.085,97.118 L81.554,96.100 ZM117.269,97.118 L123.392,251.853 L139.719,264.068 L141.760,97.118 L117.269,97.118 Z" class="cls-1"/>
</svg>
